X:1403
T:Push About The Jorum
P:Push About The Jorum
C:Gow (5th Coll. 1809)
R:Reel (8x32)
B:RSCDS 14-3
Z:Anselm Lingnau <anselm@strathspey.org>
M:C|
L:1/8
K:G
g|"G"dGBG "D"FAAc|"G"BGBd "C"e/f/gf>e|"G"dGBG "D"FAA>B|"G"DG"D7"FA "G"G2 Gg|
  "G"dGBG "D"FAAc|"G"BGBd "C"e/f/gf>e|"G"dGBG "D"FAA>B|"G"DG"D7"FA "G"G2 G||
d|"Em"g2 f>g "G7"afed|"Em"ggf>g "D"a2d2|\
                         "G"dgfg "D"afed|"Em"e/f/g"D"f/g/a "G"g2 g>d|
  "Em"g2 f>g "G7"afed|"Em"ggfg "D"a2d2|\
                         "G"dgfg "D"afed|"G"eg"D7"fa "G"g2 g|]
